src/assets/nft-action/send.svg

<svg fill="none" height="18" viewBox="0 0 18 18" width="18" xmlns="http://www.w3.org/2000/svg" xmlns:xlink="http://www.w3.org/1999/xlink"><linearGradient id="a" gradientUnits="userSpaceOnUse" x1="0" x2="18" y1="0" y2="18"><stop offset="0" stop-color="#ff7575"/><stop offset="1" stop-color="#8b54ff"/></linearGradient><clipPath id="b"><path d="m0 0h18v18h-18z"/></clipPath><clipPath id="c"><path d="m4.5 4.5h9v9h-9z"/></clipPath><g clip-path="url(#b)"><circle cx="9" cy="9" fill="url(#a)" r="9"/><g clip-path="url(#c)" stroke="#181a20" stroke-linecap="round" stroke-linejoin="round" stroke-width=".75"><path d="m8.25 9.75 4.125-4.125"/><path d="m12.3752 5.625-2.43749 6.75c-.01645.0359-.04287.0663-.07611.0877-.03323.0213-.0719.0326-.11139.0326s-.07816-.0113-.11139-.0326c-.03324-.0214-.05966-.0518-.07611-.0877l-1.3125-2.625-2.625-1.3125c-.0359-.01645-.06633-.04287-.08766-.07611-.02133-.03323-.03267-.0719-.03267-.11139s.01134-.07816.03267-.11139c.02133-.03324.05176-.05966.08766-.07611z"/></g></g></svg>

<svg width="18" height="18" viewBox="0 0 18 18" fill="none" xmlns="http://www.w3.org/2000/svg">
    <g clip-path="url(#clip0_15985_74908)">
        <circle cx="9" cy="9" r="9" fill="url(#paint0_linear_15985_74908)"/>
        <g clip-path="url(#clip1_15985_74908)">
            <path d="M8.25 9.75L12.375 5.625" stroke="#181A20" stroke-width="0.75" stroke-linecap="round" stroke-linejoin="round"/>
            <path d="M12.3752 5.625L9.93771 12.375C9.92126 12.4109 9.89484 12.4413 9.8616 12.4627C9.82837 12.484 9.7897 12.4953 9.75021 12.4953C9.71072 12.4953 9.67205 12.484 9.63882 12.4627C9.60558 12.4413 9.57916 12.4109 9.56271 12.375L8.25021 9.75L5.62521 8.4375C5.58931 8.42105 5.55888 8.39463 5.53755 8.36139C5.51622 8.32816 5.50488 8.28949 5.50488 8.25C5.50488 8.21051 5.51622 8.17184 5.53755 8.13861C5.55888 8.10537 5.58931 8.07895 5.62521 8.0625L12.3752 5.625Z" stroke="#181A20" stroke-width="0.75" stroke-linecap="round" stroke-linejoin="round"/>
        </g>
    </g>
    <defs>
        <linearGradient id="paint0_linear_15985_74908" x1="0" y1="0" x2="18" y2="18" gradientUnits="userSpaceOnUse">
            <stop stop-color="#FF7575"/>
            <stop offset="1" stop-color="#8B54FF"/>
        </linearGradient>
        <clipPath id="clip0_15985_74908">
            <rect width="18" height="18" fill="white"/>
        </clipPath>
        <clipPath id="clip1_15985_74908">
            <rect width="9" height="9" fill="white" transform="translate(4.5 4.5)"/>
        </clipPath>
    </defs>
</svg>
